**kern
*staff1
!!pagebreak:original
*I"P1
=1-
*clefG2
*k[f#]
*M2/4
8b\L
8b\
8b\
8cc\J
=2
8b\L
8b\
8b\
8ee\J
=3
8b\L
8b\
8b\
8dd\J
=4
8cc\L
8a\
8b\
8b\J
=5
8cc/L
8b/
8a/
8e/J
=6
8f#/L
8d/
8g/
8cc/J
=7
8b/L
8a/
8g/
8e/J
=8
8f#/L
8e/
8f#/
8d/J
*-
